dist/img/social-twitter.svg

<svg width="22" height="19" viewBox="0 0 22 19" fill="none" xmlns="http://www.w3.org/2000/svg">
<path fill-rule="evenodd" clip-rule="evenodd" d="M13.8491 2.65787C13.3922 2.65768 12.941 2.75892 12.5281 2.95429C12.1151 3.14965 11.7507 3.43427 11.4611 3.78759C11.1715 4.14091 10.9639 4.55412 10.8534 4.99739C10.7429 5.44067 10.7322 5.90295 10.8221 6.35087C10.853 6.50607 10.8467 6.66639 10.8036 6.81866C10.7605 6.97094 10.6819 7.11081 10.5742 7.22678C10.4665 7.34275 10.3329 7.43151 10.1842 7.48577C10.0355 7.54002 9.87612 7.55822 9.71906 7.53887C7.56879 7.27473 5.54179 6.39082 3.88506 4.99487C3.91606 5.59687 4.12506 6.23687 4.57806 6.90687L5.25706 7.91087L4.14206 8.38587L3.92706 8.47787C4.08706 8.66087 4.27906 8.84787 4.49406 9.03287C4.78148 9.27888 5.08553 9.50475 5.40406 9.70887L5.41506 9.71587H5.41606L6.96406 10.6549L5.34406 11.4649C5.26406 11.5049 5.18406 11.5409 5.10406 11.5729C5.4524 11.8623 5.83615 12.1063 6.24606 12.2989L7.63606 12.9559L6.47206 13.9599C5.83706 14.5079 5.19806 14.9169 4.36906 15.1329C5.6405 15.8101 7.0595 16.1629 8.50006 16.1599C13.3061 16.1599 17.1761 12.3249 17.1761 7.62587V7.10587L17.6011 6.80687C18.2651 6.34087 18.7341 5.71087 19.0701 4.98987H16.9101L16.6381 4.41987C16.3876 3.89254 15.9927 3.44707 15.4992 3.13518C15.0057 2.82329 14.4339 2.65778 13.8501 2.65787H13.8491ZM2.56906 9.95787C2.4747 10.0659 2.40469 10.193 2.3638 10.3306C2.3229 10.4681 2.31208 10.6128 2.33206 10.7549C2.44506 11.5559 2.92406 12.2459 3.45406 12.7729C3.59806 12.9159 3.75206 13.0529 3.91406 13.1839L3.83906 13.2039C3.35806 13.3239 2.70906 13.3489 1.62806 13.2439C1.42392 13.2238 1.21856 13.2671 1.03981 13.3677C0.861073 13.4683 0.7176 13.6215 0.628848 13.8064C0.540097 13.9913 0.51036 14.1991 0.54367 14.4015C0.57698 14.6039 0.671726 14.7911 0.81506 14.9379C1.81583 15.9608 3.01135 16.7729 4.33108 17.3263C5.65081 17.8797 7.06801 18.1631 8.49906 18.1599C14.2121 18.1599 18.8981 13.7239 19.1631 8.12587C20.4531 7.04287 21.0981 5.57587 21.4461 4.24287C21.4848 4.09492 21.489 3.94007 21.4585 3.79022C21.4279 3.64038 21.3634 3.49953 21.2699 3.37851C21.1765 3.25749 21.0565 3.15953 20.9192 3.09216C20.7819 3.02478 20.631 2.98979 20.4781 2.98987H18.1251C17.5495 2.09619 16.7084 1.40531 15.72 1.0143C14.7315 0.623295 13.6454 0.551818 12.6142 0.809913C11.583 1.06801 10.6587 1.64271 9.97094 2.45325C9.28323 3.26379 8.86676 4.26943 8.78006 5.32887C6.93672 4.84902 5.28739 3.80967 4.05906 2.35387C3.95028 2.22525 3.81077 2.1262 3.65348 2.0659C3.49619 2.0056 3.32622 1.98602 3.15933 2.00896C2.99245 2.0319 2.83407 2.09663 2.69888 2.19713C2.5637 2.29764 2.4561 2.43067 2.38606 2.58387C1.78006 3.90587 1.66406 5.42987 2.34006 6.97987L2.10606 7.07987C1.88213 7.17529 1.7007 7.3491 1.59576 7.56873C1.49083 7.78835 1.4696 8.03871 1.53606 8.27287C1.72206 8.92487 2.14006 9.50087 2.56806 9.95787H2.56906Z" fill="#6D6F7F"/>
</svg>

<svg width="22" height="19" viewBox="0 0 22 19" fill="none" xmlns="http://www.w3.org/2000/svg"><path fill-rule="evenodd" clip-rule="evenodd" d="M13.85 2.658a3.086 3.086 0 00-3.028 3.693A1 1 0 019.72 7.539a11.167 11.167 0 01-5.834-2.544c.031.602.24 1.242.693 1.912l.68 1.004-1.116.475-.215.092c.16.183.352.37.567.555.287.246.592.472.91.676l.011.007h.001l1.548.939-1.62.81c-.08.04-.16.076-.24.108.348.29.732.533 1.142.726l1.39.657-1.164 1.004c-.635.548-1.274.957-2.103 1.173A8.749 8.749 0 008.5 16.16c4.806 0 8.676-3.835 8.676-8.534v-.52l.425-.3c.664-.465 1.133-1.095 1.47-1.816h-2.16l-.273-.57a3.086 3.086 0 00-2.788-1.762zm-11.28 7.3a1 1 0 00-.238.797c.113.8.592 1.49 1.122 2.018.144.143.298.28.46.41l-.075.02c-.48.12-1.13.146-2.21.04a1 1 0 00-.814 1.695A10.717 10.717 0 008.5 18.16c5.713 0 10.4-4.436 10.664-10.034 1.29-1.083 1.935-2.55 2.283-3.883a1 1 0 00-.968-1.253h-2.353A5.086 5.086 0 008.78 5.329a9.214 9.214 0 01-4.72-2.975 1 1 0 00-1.674.23C1.78 3.906 1.664 5.43 2.34 6.98l-.234.1a1 1 0 00-.57 1.193c.186.652.604 1.228 1.032 1.685h.001z" fill="#6D6F7F"/></svg>
